!!!COM:	de Orto, Marbrianus
!!!CDT:	~1460///-1529//
!!!OTL:	Domine non secundum peccata nostra
!!!AGN:	Motet
!!!SCT:	Ort2004
!!!SCA:	Ort2004
!!!voices:	4
**kern	**kern	**kern	**kern
*staff4	*staff3	*staff2	*staff1
*Ivox	*Ivox	*Ivox	*Ivox
*I"Bassus	*I"Tenor	*I"Altus	*I"Superius
*I'B	*I'T	*I'A	*I'S
*clefF4	*clefGv2	*clefGv2	*clefG2
*k[b-]	*k[b-]	*k[b-]	*k[b-]
*M3/1	*M3/1	*M3/1	*M3/1
*met(O)	*met(O)	*met(O)	*met(O)
!!section: Domine non secundum peccata nostra
!!!OMD: Domine non secundum peccata nostra
=1-	=1-	=1-	=1-
0.r	0.r	1G	0g
.	.	2B-\	.
.	.	2c\	.
.	.	1d	1f
=2	=2	=2	=2
0.r	0.r	1e-i	1g
.	.	2d\	2f/
.	.	1d	2d/
.	.	.	1e-i
.	.	2c\	.
=3	=3	=3	=3
0.r	0.r	2d\	2.d/
.	.	4c\	.
.	.	4B-\	4e/
.	.	2A/	2f/
.	.	2G/	2g/
.	.	1B-	2f/
.	.	.	[2g/
=4	=4	=4	=4
0.r	0.r	1A	2g/]
.	.	.	2f/
.	.	2r	2g/
.	.	1d	2b-\
.	.	.	2a/
.	.	2G/	[2b-\
=5	=5	=5	=5
0.r	0.r	2d\	2b-\]
.	.	2e\	2g/
.	.	1f	1a
.	.	2g\	2.g/
.	.	2e\	.
.	.	.	4a/
=6	=6	=6	=6
0.r	0.r	2d\	2b-\
.	.	2.f\	2a/
.	.	.	2.cc\
.	.	4e\	.
.	.	2.c\	.
.	.	.	4b-\
.	.	.	2a/
.	.	4d\	.
.	.	2e-i\	2g/
=7	=7	=7	=7
0.r	0.r	1d	2b-\
.	.	.	2.a/
.	.	2c\	.
.	.	.	4g/
.	.	2B-\	1g
.	.	1A	.
.	.	.	2f#i/
=8	=8	=8	=8
0.r	0.r	0.G	0g
.	.	.	1r
=9	=9	=9	=9
1GG	1G	0.r	0.r
2BB-/	2G/	.	.
2C/	2G/	.	.
2D\	2F/	.	.
2E\	2G/	.	.
=10	=10	=10	=10
1F	2F/	0.r	0.r
.	1D	.	.
0BB-	.	.	.
.	1F	.	.
.	[2G/	.	.
=11	=11	=11	=11
1AA	2G/]	0.r	0.r
.	2F/	.	.
2GG/	1B-	.	.
1D	.	.	.
.	2A/	.	.
2C/	[2c\	.	.
=12	=12	=12	=12
2E-i\	2c\]	1r	0.r
2.D\	2B-\	.	.
.	2A/	1r	.
4C/	.	.	.
2BB-/	1G	.	.
1AA	.	2.c\	.
.	2F#i/	.	.
.	.	4d\	.
=13	=13	=13	=13
1GG	0G	2e-i\	0.r
.	.	1d	.
2r	.	.	.
1G	.	2B-\	.
.	1A	1c	.
2F\	.	.	.
=14	=14	=14	=14
2G\	2B-\	2B-\	0.r
1F	2.c\	1A	.
.	4B-\	.	.
1B-	4A/	2B-\	.
.	4G/	.	.
.	1F	1c	.
2A\	.	.	.
=15	=15	=15	=15
1B-	0.r	2f\	0d
.	.	4e\	.
.	.	2d\	.
1BB-	.	.	.
.	.	4c\	.
.	.	1B-	.
1C	.	.	1e-i
.	.	2A/	.
=16	=16	=16	=16
1BB-	0F	1B-	1d
2AA/	.	1r	2c/
2BB-/	.	.	2B-/
1F	1A	1r	1c
=17	=17	=17	=17
2BB-/	2B-\	1.f	2B-/
1F	1A	.	2.c/
.	.	.	4A/
2G\	1G	1.d	2B-/
1D	.	.	1A
.	2F#i/	.	.
=18	=18	=18	=18
1E-i	[0.G	1B-	1G
2.E-i\	.	1.e-i	1B-
4D\	.	.	.
2C/	.	.	2c/
2BB-/	.	2d\	2d/
=19	=19	=19	=19
1C	1G]	1c	1e-i
2.BB-/	0B-	1f	2.d/
4C/	.	.	4eni/
2D\	.	1r	2f/
2E-i\	.	.	[2g/
=20	=20	=20	=20
2C/	1c	1r	2g/]
2F\	.	.	1a
1G	1B-	2d\	.
.	.	2e\	2g/
1F	1A	1f	1cc
=21	=21	=21	=21
1BB-	1d	1.f	2r
.	.	.	2b-\
2F\	2c\	.	2a/
2G\	2B-\	2e\	2.b-\
1F	1c	1f	.
.	.	.	8a/L
.	.	.	8g/J
.	.	.	2a/
=22	=22	=22	=22
1G	1B-	1r	1d
1r	1r	0d	2.f/
.	.	.	4g/
1r	1r	.	2a/
.	.	.	[2b-\
=23	=23	=23	=23
1r	0.r	1e-i	4b-\]
.	.	.	4a/
.	.	.	2.cc\
1r	.	2d\	.
.	.	.	4b-\
.	.	2.g\	4a/
.	.	.	4g/
1D	.	.	1a
.	.	4eni\	.
.	.	2f\	.
=24	=24	=24	=24
1E-	1G	2B-\	1g
.	.	2G/	.
2D\	2.F/	2.A/	2r
1F	.	.	2.cc\
.	4G/	4B-\	.
.	2A/	4c\	.
.	.	4d\	4b-\
2E-\	[2B-\	2e-i\	[2g/
=25	=25	=25	=25
2G\	4B-\]	2d\	2g/]
.	4A/	.	.
1F	2.c\	2.f\	2.a/
.	4B-\	4e\	4g/
2E\	4A/	2c\	4f#i/
.	4G/	.	4e/
1D	1A	1d	1f#i
=26	=26	=26	=26
1GG	1G	2.B-\	1g
.	.	4c\	.
2BB-/	1G	2d\	1r
2C/	.	1c	.
1D	1F	.	1r
.	.	2Bni\	.
=27	=27	=27	=27
1C	2.G/	1c	1e
.	4A/	.	.
1r	2B-\	2G/	2d/
.	1c	2A/	2c/
1r	.	1G	2.d/
.	2B-\	.	.
.	.	.	4e/
=28	=28	=28	=28
1D	[0.A	1d	1f
2C/	.	2r	2e/
2D\	.	1d	2d/
1AA	.	.	1e
.	.	2c\	.
=29	=29	=29	=29
1D	1A]	0f	0.d
1BB-	0B-	.	.
1GG	.	1g	.
=30	=30	=30	=30
1D	2A/	1f	0.r
.	2B-\	.	.
2C/	2c\	2e\	.
2D\	1B-	2d\	.
2E\	.	1c	.
2F\	2A/	.	.
=31	=31	=31	=31
1BB-	1B-	1B-	2.f/
.	.	.	4g/
2F\	1r	1d	2a/
2G\	.	.	2b-\
4F\	1r	1d	2a/
4D\	.	.	.
2G\	.	.	2b-\
=32	=32	=32	=32
1C	1r	2.e-\	2.cc\
.	.	4d\	4b-\
2E-i\	1B-	4B-\	2g/
.	.	4c\	.
1D	.	2.d\	2f/
.	2A/	.	2r
.	.	4eni\	.
2BB-/	2B-\	[2f\	2d/
=33	=33	=33	=33
1F	2.c\	2f\]	1a
.	.	2c\	.
.	4B-\	.	.
1r	1G	1.d	1b-
1r	2F/	.	2a/
.	2G/	2B-\	2d/
=34	=34	=34	=34
2D\	2A/	1d	2.f/
2BB-/	2B-\	.	.
.	.	.	4e/
2F\	2A/	1r	2c/
2D\	2B-\	.	1d
1E	1G	1r	.
.	.	.	2c#i/
=35	=35	=35	=35
1D	1A	0.r	[0.d
1G	1B-	.	.
2F\	2A/	.	.
[2B-\	2G/	.	.
=36	=36	=36	=36
2B-\]	2r	1r	1d]
2G\	1G	.	.
1D	.	0d	1a
.	2F/	.	.
1r	1G	.	1b-
=37	=37	=37	=37
1r	2F/	2d\	2a/
.	2G/	2B-\	1g
2r	1D	1A	.
2D\	.	.	2f/
2C/	1r	2c\	2g/
2BB-/	.	2f\	2d/
=38	=38	=38	=38
2C/	1r	2e\	2g/
2D\	.	2d\	2f/
2GG/	1r	2B-\	2g/
2FF/	.	1c	2a/
2C/	2G/	.	2g/
2D\	2F/	2A/	[2d/
=39	=39	=39	=39
2BB-/	2G/	2B-\	2d/]
2AA/	2A/	2.c\	2.e/
1C	2G/	.	.
.	.	4d\	4f/
.	2c\	2e-i\	1g
2G\	2B-\	2d\	.
2F\	2c\	[2f\	[2a/
=40	=40	=40	=40
2D\	2d\	2f\]	2a/]
2E\	2G/	2c\	1g
1D	1A	1d	.
.	.	.	2f#i/
1GGl	1Gl	1dl	1gl
!!LO:LB:g=z
=41||	=41||	=41||	=41||
*M2/1	*M2/1	*M2/1	*M2/1
*met(C|)	*met(C|)	*met(C|)	*met(C|)
!!section: Domine ne memineris
!!!OMD: Domine ne memineris
1.BB-	0r	0r	0r
2AA/	.	.	.
=42	=42	=42	=42
1BB-	0r	0r	0r
1C	.	.	.
=43	=43	=43	=43
1.D	0r	1.F	0r
2C/	.	2E/	.
=44	=44	=44	=44
2D\	0r	1F	0r
2F\	.	.	.
1E	.	1G	.
=45	=45	=45	=45
1D	0r	2A/	0r
.	.	2B-\	.
1AA	.	1c	.
=46	=46	=46	=46
2.BB-/	0r	1.d	0r
4C/	.	.	.
4D\	.	.	.
4E\	.	.	.
[2F\	.	2c\	.
=47	=47	=47	=47
2F\]	0r	2d\	0r
1D	.	1f	.
[2G\	.	[2e\	.
=48	=48	=48	=48
4G\]	0r	2e\]	0r
4F\	.	.	.
2D\	.	1d	.
1E	.	.	.
.	.	2c#i\	.
=49	=49	=49	=49
0D	0r	0d	0r
=50	=50	=50	=50
1r	0r	1.f	0r
1D	.	.	.
.	.	2e\	.
=51	=51	=51	=51
1.F	0r	1d	0r
.	.	1c	.
4E\	.	.	.
4D\	.	.	.
=52	=52	=52	=52
0C	0r	0e-	0r
=53	=53	=53	=53
0G	0r	1.d	0r
.	.	4c\	.
.	.	4B-\	.
=54	=54	=54	=54
1F	0r	1A	0r
[1B-	.	1G	.
=55	=55	=55	=55
1B-]	0r	1.c	0r
1A	.	.	.
.	.	2B-\	.
=56	=56	=56	=56
1B-	0r	1G	0r
[1G	.	1B-	.
=57	=57	=57	=57
1G]	0r	0A	0r
1F#i	.	.	.
=58	=58	=58	=58
0G	0r	0G	0r
=59	=59	=59	=59
0r	1G	0r	0d
.	1F	.	.
=60	=60	=60	=60
0r	1B-	0r	1d
.	1B-	.	1d
=61	=61	=61	=61
0r	1.c	0r	1.e-i
.	4B-\	.	4d/
.	4c\	.	4c/
=62	=62	=62	=62
0r	0d	0r	0B-
=63	=63	=63	=63
0r	1.d	0r	1.f
.	2c\	.	2e/
=64	=64	=64	=64
0r	1B-	0r	1d
.	1A	.	[1f
=65	=65	=65	=65
0r	0B-	0r	2f/]
.	.	.	2e/
.	.	.	1d
=66	=66	=66	=66
0r	1A	0r	2.c/
.	.	.	4d/
.	2G/	.	2e/
.	[2B-\	.	[2d/
=67	=67	=67	=67
0r	2B-\]	0r	2d/]
.	1G	.	4c/
.	.	.	4B-/
.	.	.	1A
.	2F#i/	.	.
=68	=68	=68	=68
1r	0G	0r	0G
1G	.	.	.
=69	=69	=69	=69
1A	0D	1r	1r
1A	.	1d	1f
=70	=70	=70	=70
1B-	0r	1.d	1g
1G	.	.	1b-
.	.	2e\	.
=71	=71	=71	=71
0r	1F	1f	1a
.	1G	[1d	1b-
=72	=72	=72	=72
1r	1B-	1d]	1g
1D	1A	1r	1r
=73	=73	=73	=73
1D	1B-	1r	1f
1E	1G	1c	1g
=74	=74	=74	=74
1D	1r	1d	1a
1C	1G	1e	2r
.	.	.	2g/
=75	=75	=75	=75
2r	1G	1d	1b-
1G	.	.	.
.	1A	1r	1cc
2F#i\	.	.	.
=76	=76	=76	=76
1G	1G	1d	1b-
1r	[1c	[1e	[1a
=77	=77	=77	=77
0r	1c]	2e\]	1a]
.	.	2d\	.
.	1B-	[1d	[1g
=78	=78	=78	=78
1r	0A	1d]	1g]
1D	.	1d	1f#i
=79	=79	=79	=79
2BB-/	0G	2r	1g
1C	.	1e	.
.	.	.	1r
2BB-/	.	[2d\	.
=80	=80	=80	=80
1E-i	0r	2d\]	1g
.	.	1c	.
1D	.	.	1a
.	.	2F/	.
=81	=81	=81	=81
0r	0r	2B-\	2.g/
.	.	2c\	.
.	.	.	4a/
.	.	2d\	2b-\
.	.	2e-i\	[2cc\
=82	=82	=82	=82
0r	0r	2c\	2cc\]
.	.	1f	4b-\
.	.	.	4a/
.	.	.	1g
.	.	2e\	.
=83	=83	=83	=83
0D	1.A	1f	0f
.	.	1r	.
.	2G/	.	.
=84	=84	=84	=84
1.D	1A	0r	0r
.	1B-	.	.
2E\	.	.	.
=85	=85	=85	=85
1F	1A	0r	0r
1D	1B-	.	.
=86	=86	=86	=86
[0E	1.c	0r	0r
.	4B-\	.	.
.	4A/	.	.
=87	=87	=87	=87
0E]	0G	0r	0r
=88	=88	=88	=88
*rscale:2/3	*rscale:2/3	*M3/1	*rscale:2/3
*	*	*met(3)	*
!!primary-mensuration: met(3)
0.D	0.F	0A	0.r
.	.	1A	.
*	*	*	*rscale:1
=89	=89	=89	=89
*	*	*	*M3/1
*	*	*	*met(3)
0.r	0.r	1B-	1.f
.	.	2A/	.
.	.	2B-\	2g/
.	.	1c	1a
=90	=90	=90	=90
0.r	0.r	1G	0b-
.	.	0d	.
.	.	.	1a
=91	=91	=91	=91
0.r	0.r	1B-	0g
.	.	0A	.
.	.	.	1f
=92	=92	=92	=92
0.r	0.r	2G/	0g
.	.	2A/	.
.	.	2B-\	.
.	.	2c\	.
.	.	1d	1f
=93	=93	=93	=93
0.r	0.r	1e	1g
.	.	0f	0a
=94	=94	=94	=94
0.r	0.r	0g	0g
.	.	[1G	1r
=95	=95	=95	=95
0.r	0.r	1G]	0d
.	.	1B-	.
.	.	1A	1c
=96	=96	=96	=96
0.r	0.r	1B-	1.d
.	.	1G	.
.	.	.	2e/
.	.	1A	1f
=97	=97	=97	=97
0.r	0.r	1B-	1.g
.	.	0c	.
.	.	.	2f/
.	.	.	1e
=98	=98	=98	=98
0.r	0.r	1.d	1d
.	.	.	0e
.	.	2c#i\	.
.	.	2c#i\	.
.	.	2Bni\	.
=99	=99	=99	=99
0.r	0.r	0d	1d
.	.	.	1d
.	.	[1G	1r
=100	=100	=100	=100
0.r	0.r	1G]	0g
.	.	0B-	.
.	.	.	[1f
=101	=101	=101	=101
0.r	0.r	1A	1f]
.	.	1B-	0g
.	.	[1c	.
=102	=102	=102	=102
0.r	0.r	1c]	1a
.	.	1d	1b-
.	.	1c	[1cc
=103	=103	=103	=103
0.r	0.r	0e-	1cc]
.	.	.	1b-
.	.	1c	1a
=104	=104	=104	=104
0.r	0.r	1d	1b-
.	.	1.e-i	0cc
.	.	2d\	.
=105	=105	=105	=105
0.r	0.r	1B-	0b-
.	.	0c	.
.	.	.	1a
=106	=106	=106	=106
0.r	0.r	0B-;	0b-;
.	.	1r	1r
*rscale:1	*rscale:1	*	*
=107	=107	=107	=107
*	*	*M2/1	*M2/1
*	*	*met(C|)	*met(C|)
0E-	0B-	0e-i	0g
=108	=108	=108	=108
0G	0B-	[0d	0g
=109	=109	=109	=109
0D	0A	0d]	0f
=110	=110	=110	=110
0G	0B-	0d	[0g
=111	=111	=111	=111
0C	0c	0e-i	1g]
.	.	.	1g
=112	=112	=112	=112
[0E-i	1.B-	0e-i	0g
.	2A/	.	.
=113	=113	=113	=113
1E-]	1G	1r	1c
1D	1F	1B-	1d
=114	=114	=114	=114
0C	1.G	0c	0e-i
.	2A/	.	.
=115	=115	=115	=115
[0BB-;	[0B-;	[0F;	[0d;
=116	=116	=116	=116
0BB-]	0B-]	0F]	0d]
=117	=117	=117	=117
0BB-	0B-	0r	0f
=118	=118	=118	=118
0E-i	0B-	0r	0g
=119	=119	=119	=119
1.F	0A	0r	1c
.	.	.	[1f
2E\	.	.	.
=120	=120	=120	=120
1D	1B-	0r	1f]
1C	[1c	.	1e
=121	=121	=121	=121
0G	1c]	0r	0d
.	1Bni	.	.
=122	=122	=122	=122
1C	1.c	0r	1g
1F	.	.	1a
.	2A/	.	.
=123	=123	=123	=123
1G	1d	0r	1b-
1A	1c	.	[1cc
=124	=124	=124	=124
0G	0d	1r	2cc\]
.	.	.	4bni\
.	.	.	4a/
.	.	1G	1bni
=125	=125	=125	=125
0r	0c	0A	1cc
.	.	.	1r
=126	=126	=126	=126
0E-i	0r	1B-	0g
.	.	1c	.
=127	=127	=127	=127
0D	0r	0d	0f
=128	=128	=128	=128
0C	[0G	0e-i	0cc
=129	=129	=129	=129
0GG	0G]	0d	0b-
=130	=130	=130	=130
0D	0F	1r	0a
.	.	1d	.
=131	=131	=131	=131
1r	0G	1B-	1d
1C	.	1c	1e
=132	=132	=132	=132
1F	1A	1d	1f
2E-i\	1B-	1e-	1g
2G\	.	.	.
=133	=133	=133	=133
1F	0c	1f	1a
1C	.	1e-i	[1g
=134	=134	=134	=134
0D	0A	0d	2g/]
.	.	.	2f#i/
.	.	.	2f#i/
.	.	.	2e/
=135	=135	=135	=135
0GGl	0Gl	0dl	0gl
!!LO:LB:g=z
=136||	=136||	=136||	=136||
*M2/1	*M2/1	*M2/1	*M2/1
*met(C|)	*met(C|)	*met(C|)	*met(C|)
!!section: Adiuva nos Deus
!!!OMD: Adiuva nos Deus
0G	0B-	0G	1.d
.	.	.	2e/
=137	=137	=137	=137
0F	0c	0A	[0f
=138	=138	=138	=138
1BB-	0d	1B-	0f]
1D	.	2A/	.
.	.	2B-\	.
=139	=139	=139	=139
0C	0e-	0c	0g
=140	=140	=140	=140
1D	1d	1A	0f
1BB-	1d	[1B-	.
=141	=141	=141	=141
0E-i	0c	1B-]	0g
.	.	1G	.
=142	=142	=142	=142
1D	1d	1F	0a
1F	[1d	1A	.
=143	=143	=143	=143
0E-i	2d\]	1B-	0g
.	4c\	.	.
.	4B-\	.	.
.	1c	1G	.
=144	=144	=144	=144
0D	0d	0A	0f
=145	=145	=145	=145
1C	0G	1c	1e
1BB-	.	1d	1d
=146	=146	=146	=146
1C	0G	1c	1e
1E-i	.	1G	1c
=147	=147	=147	=147
0D	0F	1A	2.d/
.	.	.	4c/
.	.	1r	1A
=148	=148	=148	=148
0r	1B-	1G	2G/
.	.	.	2B-/
.	2A/	2A/	2c/
.	[2B-\	[2G/	[2d/
=149	=149	=149	=149
0r	2B-\]	4G/]	2d/]
.	.	4F/	.
.	1d	2D/	2f/
.	.	1A	1e
.	2c#i\	.	.
=150	=150	=150	=150
1D	[0d	1F	1d
1GG	.	1G	1r
=151	=151	=151	=151
1D	0d]	1A	1f
1GG	.	1B-	1g
=152	=152	=152	=152
1D	0d	1A	1a
1G	.	1r	1b-
=153	=153	=153	=153
1A	0c	1F	1.cc
1F	.	1c	.
.	.	.	4b-\
.	.	.	4a/
=154	=154	=154	=154
2r	1B-	[0d	1g
2G\	.	.	.
1D	1A	.	1f
=155	=155	=155	=155
1G	1B-	0d_	2r
.	.	.	2g/
2F\	2A/	.	2a/
[2G\	2G/	.	[2b-\
=156	=156	=156	=156
2G\]	1B-	0d]	2b-\]
2G\	.	.	1g
1D	1A	.	.
.	.	.	2f/
=157	=157	=157	=157
1r	1G	1d	1b-
1F	1c	1f	1a
=158	=158	=158	=158
1G	1B-	2r	2.d/
.	.	1d	.
.	.	.	4e/
2D\	1A	.	4f/
.	.	.	4g/
2F\	.	2c\	2a/
=159	=159	=159	=159
2G\	1d	2B-\	2b-\
1F	.	1f	1a
.	2c\	.	.
[2C/	[2e\	[2g\	[2cc\
=160	=160	=160	=160
1C]	4e\]	2g\]	4cc\]
.	4d\	.	4b-\
.	4c\	2e\	4a/
.	4B-\	.	4g/
1D	1A	1d	1f#i
=161	=161	=161	=161
2.GG/	1G	0r	1g
4AA/	.	.	.
2BB-/	1G	.	1r
2C/	.	.	.
=162	=162	=162	=162
2AA/	1F	0r	0r
2.BB-/	.	.	.
.	1B-	.	.
4C/	.	.	.
4D\	.	.	.
4E\	.	.	.
=163	=163	=163	=163
2F\	2A/	1r	0r
1G	2G/	.	.
.	1A	1c	.
2F#i\	.	.	.
=164	=164	=164	=164
1G	1G	1B-	1r
1r	1r	1e-i	1g
=165	=165	=165	=165
0r	0r	2d\	1f
.	.	2.B-\	.
.	.	.	1b-
.	.	4c\	.
.	.	4d\	.
.	.	4e\	.
=166	=166	=166	=166
0r	1r	2f\	2a/
.	.	1g	2g/
.	1d	.	1a
.	.	2f#i\	.
=167	=167	=167	=167
1C	1e-	1g	1g
1BB-	1d	1r	1r
=168	=168	=168	=168
0E-	1B-	0r	0r
.	1c	.	.
=169	=169	=169	=169
1D	2.F/	0r	0r
.	4G/	.	.
2C/	2A/	.	.
[2D\	[2B-\	.	.
=170	=170	=170	=170
2D\]	4B-\]	0r	0r
.	4c\	.	.
2GG/	1d	.	.
2BB-/	.	.	.
2C/	[2G/	.	.
=171	=171	=171	=171
1AA	2G/]	0r	0r
.	2F#i/	.	.
1GG	1G	.	.
=172	=172	=172	=172
0C	1r	1G	0e
.	1G	1c	.
=173	=173	=173	=173
1BB-	1B-	1d	1f
1E-i	1G	1G	1g
=174	=174	=174	=174
1D	1A	0r	1f
1C	[1A	.	1e
=175	=175	=175	=175
0BB-	2A/]	1F	0d
.	4G/	.	.
.	4F/	.	.
.	1G	1D	.
=176	=176	=176	=176
1.AA	0A	[0E	0c
2BB-/	.	.	.
=177	=177	=177	=177
1C	1G	1E]	0r
1D	1F	[1A	.
=178	=178	=178	=178
2C/	1A	2A/]	0r
2D\	.	2F/	.
1E	1G	1c	.
=179	=179	=179	=179
2D\	1A	2r	0r
2F\	.	2.d\	.
2G\	2B-\	.	.
.	.	4e\	.
[2A\	[2c\	[2f\	.
=180	=180	=180	=180
2A\]	2c\]	2f\]	0r
4G\	4B-\	1d	.
4F\	4A/	.	.
1E	1G	.	.
.	.	2c#i\	.
=181	=181	=181	=181
*M3/1	*M3/1	*M3/1	*M3/1
*met(3)	*met(3)	*met(3)	*met(3)
0D	1F	0.d	0a
.	1r	.	.
1D	1r	.	1a
=182	=182	=182	=182
1.D	0F	0.r	1.a
2C/	.	.	2b-\
1AA	1F	.	1cc
=183	=183	=183	=183
1GG	1G	0d	1b-
0D	1F	.	0a
.	[1B-	1d	.
=184	=184	=184	=184
1GG	1B-]	1d	1.g
0D	0A	0d	.
.	.	.	2f#i/
.	.	.	2f#i/
.	.	.	2e/
=185	=185	=185	=185
0GG	0G	0B-	1.g
.	.	.	2f/
[1C	1G	[1c	2e/
.	.	.	2d/
=186	=186	=186	=186
1C]	1G	1c]	1e
0GG	1.B-	1B-	0d
.	.	1G	.
.	2G/	.	.
=187	=187	=187	=187
1GG	0G	0d	1B-
0D	.	.	0A
.	1F#i	1d	.
=188	=188	=188	=188
1GG	[0.G	0d	1B-
1BB-	.	.	1d
1C	.	[1c	1e-i
=189	=189	=189	=189
1E-i	1G]	1c]	1c
0D	0F	0B-	1d
.	.	.	1f
=190	=190	=190	=190
1C	1G	1c	1e
1BB-	1B-	1d	1d
[1E-i	1c	[1e-	[1g
=191	=191	=191	=191
1E-]	1B-	1e-]	1g]
0F	1A	0c	0a
.	1c	.	.
=192	=192	=192	=192
1D	1d	1f	1b-
0C	0e-i	0g	1.cc
.	.	.	2b-\
=193	=193	=193	=193
1D	1d	1f	0b-
1E	0c	1g	.
1F	.	1f	1a
=194	=194	=194	=194
0.BB-	0B-	0d	0.b-
.	[1B-	1r	.
=195	=195	=195	=195
0E-i	1B-]	0G	0.r
.	0c	.	.
1C	.	1E	.
=196	=196	=196	=196
1D	1B-	1F	0.r
1AA	2c\	0E	.
.	2B-\	.	.
1C	2A/	.	.
.	2G/	.	.
=197	=197	=197	=197
1BB-	0G	1D	0.r
0AA	.	1r	.
.	1F#i	1r	.
=198	=198	=198	=198
0GG	0G	0.d	0b-
1G	1r	.	1b-
=199	=199	=199	=199
0D	0F	0f	0a
1BB-	1G	1d	1b-
=200	=200	=200	=200
0F	0A	1c	0cc
.	.	1f	.
1G	1G	[1d	1b-
=201	=201	=201	=201
1D	1F	1d]	1a
0E-i	0G	1B-	0g
.	.	1c	.
=202	=202	=202	=202
0.D;	0.A;	0.d;	0.f;
=203	=203	=203	=203
0.r	0.r	0.r	0.r
=204	=204	=204	=204
*M2/1	*M2/1	*M2/1	*M2/1
*met(C|2)	*met(C|2)	*met(C|2)	*met(C|2)
0C	0c	00G	0e
0GG	0B-	.	0g
=206	=206	=206	=206
0AA	0c	0C	0e
0BB-	0B-	0F	0d
=208	=208	=208	=208
1C	0G	1E	0e
1E	.	1G	.
0D	0A	0F	0f
=210	=210	=210	=210
0G	0B-	0r	0d
0D	0d	[0F	[0a
=212	=212	=212	=212
1F	0c	1F]	1a]
1E	.	1G	1g
1D	1d	1A	1f
1G	1B-	1G	[1g
=214	=214	=214	=214
0D	0A	0d	1g]
.	.	.	1f#i
1E-i	0G	1B-	0g
1C	.	1c	.
=216	=216	=216	=216
0G	1r	0d	0b-
.	0G	.	.
0D	.	[0d	0a
.	1F	.	.
=218	=218	=218	=218
0G	0B-	0d]	1r
.	.	.	0d
1F	1r	0A	.
1D	[1A	.	1f
=220	=220	=220	=220
1C	1A]	0r	1e
1D	0B-	.	1d
1E-i	.	0r	0g
1C	1c	.	.
=222	=222	=222	=222
0D	0A	0r	1r
.	.	.	0f
0F	1r	0r	.
.	[1c	.	1a
=224	=224	=224	=224
1E	1c]	0r	1g
1D	0d	.	1f
0G	.	0d	0b-
.	1B-	.	.
=226	=226	=226	=226
0F	0c	0f	1r
.	.	.	0a
0A	0r	1e	.
.	.	1f	1cc
=228	=228	=228	=228
1G	0d	1g	1b-
1F	.	1a	1a
0G	0B-	[0g	0dd
=230	=230	=230	=230
0C	0e-	0g]	1.cc
.	.	.	2b-\
1r	1c	1e	2a/
.	.	.	2g/
[1GG	[1d	1d	[1b-
=232	=232	=232	=232
2GG/]	1d]	2B-\	1b-]
2AA/	.	2c\	.
2BB-/	2c\	2d\	2a/
2C/	2B-\	2e\	2g/
1D	1A	1f	1f
1C	[1c	1e	[1a
=234	=234	=234	=234
1F	1c]	1f	2a/]
.	.	.	2g/
1G	1B-	0.d	1.g
0D	0A	.	.
.	.	.	2f#i/
.	.	.	2f#i/
.	.	.	2e/
=236	=236	=236	=236
00GGl	00Gl	0B-	00gl
.	.	0dl	.
==	==	==	==
*-	*-	*-	*-
!!!RDF**kern: l=long note in original notation
!!!RDF**kern: i=editorial accidental
!!!ENC:	Jesse Rodin 2010/2013
!!!END:	2013/05/06/
!!!EED:	Jesse Rodin
!!!EEV:	2013/08/09/
!!!ONB:	Translated from MusicXML and edited on 2013/08/06/ by Craig Sapp
!!muse2ps: C^@{COM}^i2I150v85,85,85,150Q8c140
